X:138
%%etbk:tnset id:275,pos:2,rep:3x,ant:
%%etbk:wsite http://www.thesession.org/tunes/display/10532
%%etbk:skill ?
%%etbk:pldat 2013-11-26T15:44,2013-11-24T14:46
T: Jearoid
Z: Piano Box Version by Martin Fleischmann
H: Created 2013-02-19 /  Last Modified 2013-02-19
M: 4/4
L: 1/8
R: reel
K: Ador
!4!A| "am"!4!A!3!G!2!E!1!D EGAB | !4!AGEG A3!3!G | "G"!4!G!3!E!2!D!1!B, DEGA | !4!GEDE !4!!3!G3!4!A |
"am"!4!A!3!G!2!E!1!D EGAB | !4!AGEG !4!A3 !4!B | !5!cBAc "em"!4!B!3!A!2!G!1!E | !1!DE!3!G!4!A !3!!1!Gz !2!B/c/!4!d |
"C"!5!e4 "G"!4!d3!3!B | "am"!5!cBA!2!G !1!E!2!G!3!B!4!d | "C"!5!e4 "G"!4!d3!1!d | !1!de!4!ga g2 !2!B/c/!4!d |
"C"!5!e4 "G"!4!d3 !3!B | "am"!5!cBA!2!G !1!E!2!G!3!A!4!B | !5!cBAc "em"!4!B!3!A!2!G!1!E | !1!DE!3!GA G4 ||
